packages/ui-icons/src/Basic/24/Change-sim-card_24.svg

<svg xmlns="http://www.w3.org/2000/svg" viewBox="0 0 32 32"><path d="M21 10h-6.53L11 14v8h10Zm-2 10h-6v-5.33L15.46 12H19Z"/><path d="M28.08 17v-1A12 12 0 0 0 7.53 7.53l1.41 1.41A10 10 0 0 1 26.08 16v1.13l-1.38-1.87-1.41 1.41 3.08 3.08h1.25l3.08-3.08-1.41-1.41ZM4 15v1a12 12 0 0 0 20.56 8.51l-1.41-1.41A10 10 0 0 1 6 16v-1l1.29 1.71L8.7 15.3l-3.07-3.09H4.37l-3.08 3.08L2.7 16.7Z"/></svg>

<svg id="Ready" xmlns="http://www.w3.org/2000/svg" viewBox="0 0 32 32"><title>Megaicons_work_24_1.8_cp</title><path d="M21,10H14.47L11,14v8H21ZM19,20H13V14.67L15.46,12H19Z"/><path d="M28.08,17V16A12,12,0,0,0,7.53,7.53L8.94,8.94A10,10,0,0,1,26.08,16v1.13l-1.38-1.87-1.41,1.41,3.08,3.08h1.25l3.08-3.08-1.41-1.41Z"/><path d="M4,15v1a12,12,0,0,0,20.56,8.51l-1.41-1.41A10,10,0,0,1,6,16V15l1.29,1.71,1.41-1.41L5.63,12.21H4.37L1.29,15.29l1.41,1.41Z"/></svg>
